X:131
T: Taiyang chulai zhao beiyan
N: C0221
O: China,Sichuan, Chongqing
S: II, 198]
N: Tonart: Yu; Haupttoene = 3-6-1-2
N: Wenig Verzierungen und Glissandi.
R: Shange. Xin minge]
M: 4/4
L: 1/16
K: D
deBdB2F2d8 | ed2BB2d2B6
d2 | B2B2B2d2d2e2B4 | B2F2F2F2B4z4 |
deBdB2F2d8 | ee2de2d2B6
d2 | B2d2e2Bdd2e2B4 | B2d2d2B2d4z4 |
deBdB2F2d8 | ed2BB2d2B6
d2 | e2d2dB2dd2e2B4 | B2d2F2B2d4z4 |
deBdB2F2d8 | ed2BB2d2B6
d2 | B2B2B2d2d2e2B4 | d2F2B2d2d2B2z4

@@@ Tune index: 6132
